icons/istanbul.svg

<svg xmlns="http://www.w3.org/2000/svg" viewBox="0 0 32 32"><path fill="#fdd835" d="M30 13v-3h-2v3h-1v.5a.5.5 0 0 0 .5.5h.5v10h-1v-2h-1v-8h-1v6h-2v-3h-1v1h-1v-1h1a6.353 6.353 0 0 0-6-4 6.353 6.353 0 0 0-6 4h1v1h-1v-1H9v3H7v-6H6v8H5v2H4V14h.5a.5.5 0 0 0 .5-.5V13H4v-3H2v3H1v.5a.5.5 0 0 0 .5.5H2v12h8v-6h2v6h8v-6h2v6h8V14h.5a.5.5 0 0 0 .5-.5V13ZM14 24h-1v-2h1Zm3 0h-2v-2a1 1 0 0 1 2 0Zm2 0h-1v-2h1Zm-1-7v1h-1v-1Zm-3 0v1h-1v-1Zm-3 0h1v1h-1Zm7 1v-1h1v1ZM3 6 2 9h2L3 6zm26 0-1 3h2l-1-3z"/><path fill="#fdd835" d="m16 10-1 2h2l-1-2zm9.5 1-.5 2h1l-.5-2zm-19 0L6 13h1l-.5-2z"/></svg>

<svg xmlns="http://www.w3.org/2000/svg" viewBox="0 0 32 32">
  <g>
    <path d="M30,13V10H28v3H27v.5a.5.5,0,0,0,.5.5H28V24H27V22H26V14H25v6H23V17H22v1H21V17h1a6.35346,6.35346,0,0,0-6-4,6.35346,6.35346,0,0,0-6,4h1v1H10V17H9v3H7V14H6v8H5v2H4V14h.5a.5.5,0,0,0,.5-.5V13H4V10H2v3H1v.5a.5.5,0,0,0,.5.5H2V26h8V20h2v6h8V20h2v6h8V14h.5a.5.5,0,0,0,.5-.5V13ZM14,24H13V22h1Zm3,0H15V22a1,1,0,0,1,2,0Zm2,0H18V22h1Zm-1-7v1H17V17Zm-3,0v1H14V17Zm-3,0h1v1H12Zm7,1V17h1v1Z" style="fill: #fdd835"/>
    <polygon points="3 6 2 9 4 9 3 6" style="fill: #fdd835"/>
    <polygon points="29 6 28 9 30 9 29 6" style="fill: #fdd835"/>
    <polygon points="16 10 15 12 17 12 16 10" style="fill: #fdd835"/>
    <polygon points="25.5 11 25 13 26 13 25.5 11" style="fill: #fdd835"/>
    <polygon points="6.5 11 6 13 7 13 6.5 11" style="fill: #fdd835"/>
  </g>
</svg>
